X: 14450
T: Galway, The
R: hornpipe
M: 4/4
K: Dmajor
|:FE|D2 FA dAFD|CDEF G2 FE|D2 FA dcdf|edcB AGFE|
D2 FA dAFD|CDEF G2 FG|AdcB AGFE|D2 CE D2:|
|:de|~f3 g fedc|B^ABc B2 cd|e2 ef edcB|A2 (3Ace a2 (3ABc|
dcde fdAF|GFGA BdcB|AdcB AGFE|D2 CE D2:|

